;FLAVOR:Marlin
;TIME:7606
;Filament used: 8.54821m
;Layer height: 0.2
;Generated with Cura_SteamEngine 3.6.0
M140 S60
M105
M190 S60
M104 S200
M105
M109 S200
M82 ;absolute extrusion mode
G21 ;metric values
G90 ;absolute positioning
M82 ;set extruder to absolute mode
M107 ;start with the fan off
G28 X0 Y0 ;move X/Y to min endstops
G28 Z0 ;move Z to min endstops
G1 Z15.0 F9000 ;move the platform down 15mm
G92 E0 ;zero the extruded length
G1 F200 E3 ;extrude 3mm of feed stock
G92 E0 ;zero the extruded length again
G1 F9000
;Put printing message on LCD screen
M117 Printing...
G92 E0
G1 F1500 E-6.5
;LAYER_COUNT:50
;LAYER:0
M107
G0 F3600 X57.597 Y36.896 Z0.3
;TYPE:SKIRT
G1 F1500 E0
G1 F1800 X58.08 Y36.272 E0.03937
G1 X58.623 Y35.699 E0.07875
G1 X59.222 Y35.184 E0.11816
G1 X59.87 Y34.733 E0.15755
G1 X60.561 Y34.349 E0.19699
G1 X61.286 Y34.037 E0.23637
G1 X62.039 Y33.8 E0.27575
G1 X62.813 Y33.641 E0.31517
G1 X63.598 Y33.56 E0.35455
G1 X64 Y33.55 E0.37461
G1 X136 Y33.55 E3.9667
G1 X136.789 Y33.59 E4.00612
G1 X137.569 Y33.709 E4.04548
G1 X138.334 Y33.907 E4.0849
G1 X139.074 Y34.181 E4.12427
G1 X139.783 Y34.529 E4.16368
G1 X140.454 Y34.947 E4.20312
G1 X141.078 Y35.43 E4.24248
G1 X141.651 Y35.973 E4.28187
G1 X142.166 Y36.572 E4.32128
G1 X142.617 Y37.22 E4.36067
G1 X143.001 Y37.911 E4.40011
G1 X143.313 Y38.636 E4.43948
G1 X143.55 Y39.389 E4.47887
G1 X143.709 Y40.163 E4.51829
G1 X143.79 Y40.948 E4.55766
G1 X143.8 Y41.35 E4.57772
G1 X143.8 Y158.65 E10.42985
G1 X143.76 Y159.439 E10.46926
G1 X143.641 Y160.219 E10.50862
G1 X143.443 Y160.984 E10.54805
G1 X143.169 Y161.724 E10.58742
G1 X142.821 Y162.433 E10.62682
G1 X142.403 Y163.104 E10.66626
G1 X141.92 Y163.728 E10.70563
G1 X141.377 Y164.301 E10.74501
G1 X140.778 Y164.816 E10.78442
G1 X140.13 Y165.267 E10.82381
G1 X139.439 Y165.651 E10.86325
G1 X138.714 Y165.963 E10.90263
G1 X137.961 Y166.2 E10.94201
G1 X137.187 Y166.359 E10.98143
G1 X136.402 Y166.44 E11.0208
G1 X136 Y166.45 E11.04087
G1 X64 Y166.45 E14.63296
G1 X63.211 Y166.41 E14.67238
G1 X62.431 Y166.291 E14.71174
G1 X61.666 Y166.093 E14.75116
G1 X60.926 Y165.819 E14.79053
G1 X60.217 Y165.471 E14.82994
G1 X59.546 Y165.053 E14.86938
G1 X58.922 Y164.57 E14.90874
G1 X58.349 Y164.027 E14.94813
G1 X57.834 Y163.428 E14.98754
G1 X57.383 Y162.78 E15.02693
G1 X56.999 Y162.089 E15.06637
G1 X56.687 Y161.364 E15.10574
G1 X56.45 Y160.611 E15.14513
G1 X56.291 Y159.837 E15.18455
G1 X56.21 Y159.052 E15.22392
G1 X56.2 Y158.65 E15.24398
G1 X56.2 Y41.35 E21.0961
G1 X56.24 Y40.561 E21.13552
G1 X56.359 Y39.781 E21.17488
G1 X56.557 Y39.016 E21.21431
G1 X56.831 Y38.276 E21.25367
G1 X57.179 Y37.567 E21.29308
G1 X57.597 Y36.896 E21.33252
G0 F3600 X57.994 Y37.027
G1 F1800 X58.475 Y36.427 E21.37088
G1 X59.016 Y35.88 E21.40927
G1 X59.611 Y35.392 E21.44766
G1 X60.253 Y34.969 E21.48602
G1 X60.936 Y34.614 E21.52442
G1 X61.651 Y34.333 E21.56275
G1 X62.393 Y34.127 E21.60116
G1 X63.151 Y33.999 E21.63952
G1 X64 Y33.95 E21.68194
G1 X136 Y33.95 E25.27404
G1 X136.768 Y33.99 E25.31241
G1 X137.528 Y34.109 E25.35078
G1 X138.271 Y34.307 E25.38915
G1 X138.99 Y34.581 E25.42753
G1 X139.676 Y34.928 E25.46589
G1 X140.323 Y35.344 E25.50426
G1 X140.923 Y35.825 E25.54263
G1 X141.47 Y36.366 E25.58101
G1 X141.958 Y36.961 E25.6194
G1 X142.381 Y37.603 E25.65776
G1 X142.736 Y38.286 E25.69616
G1 X143.017 Y39.001 E25.73449
G1 X143.223 Y39.743 E25.77291
G1 X143.351 Y40.501 E25.81126
G1 X143.4 Y41.35 E25.85369
G1 X143.4 Y158.65 E31.70581
G1 X143.36 Y159.418 E31.74418
G1 X143.241 Y160.178 E31.78256
G1 X143.043 Y160.921 E31.82092
G1 X142.769 Y161.64 E31.85931
G1 X142.422 Y162.326 E31.89766
G1 X142.006 Y162.973 E31.93604
G1 X141.525 Y163.573 E31.9744
G1 X140.984 Y164.12 E32.01278
G1 X140.389 Y164.608 E32.05118
G1 X139.747 Y165.031 E32.08953
G1 X139.064 Y165.386 E32.12794
G1 X138.349 Y165.667 E32.16626
G1 X137.607 Y165.873 E32.20468
G1 X136.849 Y166.001 E32.24303
G1 X136 Y166.05 E32.28546
G1 X64 Y166.05 E35.87756
G1 X63.232 Y166.01 E35.91592
G1 X62.472 Y165.891 E35.9543
G1 X61.729 Y165.693 E35.99266
G1 X61.01 Y165.419 E36.03105
G1 X60.324 Y165.072 E36.0694
G1 X59.677 Y164.656 E36.10778
G1 X59.077 Y164.175 E36.14615
G1 X58.53 Y163.634 E36.18453
G1 X58.042 Y163.039 E36.22292
G1 X57.619 Y162.397 E36.26128
G1 X57.264 Y161.714 E36.29968
G1 X56.983 Y160.999 E36.33801
G1 X56.777 Y160.257 E36.37643
G1 X56.649 Y159.499 E36.41478
G1 X56.6 Y158.65 E36.45721
G1 X56.6 Y41.35 E42.30933
G1 X56.64 Y40.582 E42.34769
G1 X56.759 Y39.822 E42.38607
G1 X56.957 Y39.079 E42.42443
G1 X57.231 Y38.36 E42.46282
G1 X57.578 Y37.674 E42.50118
G1 X57.994 Y37.027 E42.53955
G0 F3600 X58.392 Y37.161
G1 F1800 X58.871 Y36.587 E42.57685
G1 X59.408 Y36.066 E42.61418
G1 X59.998 Y35.607 E42.65147
G1 X60.634 Y35.212 E42.68882
G1 X61.308 Y34.888 E42.72613
G1 X62.013 Y34.638 E42.76345
G1 X62.741 Y34.464 E42.80079
G1 X63.483 Y34.369 E42.83812
G1 X64 Y34.35 E42.86393
G1 X136 Y34.35 E46.45602
G1 X136.747 Y34.39 E46.49334
G1 X137.485 Y34.509 E46.53064
G1 X138.207 Y34.707 E46.56799
G1 X138.903 Y34.98 E46.60529
G1 X139.566 Y35.327 E46.64262
G1 X140.189 Y35.742 E46.67997
G1 X140.763 Y36.221 E46.71726
G1 X141.284 Y36.758 E46.75459
G1 X141.743 Y37.348 E46.79189
G1 X142.138 Y37.984 E46.82924
G1 X142.462 Y38.658 E46.86655
G1 X142.712 Y39.363 E46.90387
G1 X142.886 Y40.091 E46.94121
G1 X142.981 Y40.833 E46.97853
G1 X143 Y41.35 E47.00434
G1 X143 Y158.65 E52.85646
G1 X142.96 Y159.397 E52.89378
G1 X142.841 Y160.135 E52.93108
G1 X142.643 Y160.857 E52.96843
G1 X142.37 Y161.553 E53.00573
G1 X142.023 Y162.216 E53.04306
G1 X141.608 Y162.839 E53.08041
G1 X141.129 Y163.413 E53.11771
G1 X140.592 Y163.934 E53.15503
G1 X140.002 Y164.393 E53.19233
G1 X139.366 Y164.788 E53.22968
G1 X138.692 Y165.112 E53.26699
G1 X137.987 Y165.362 E53.30431
G1 X137.259 Y165.536 E53.34165
G1 X136.517 Y165.631 E53.37897
G1 X136 Y165.65 E53.40478
G1 X64 Y165.65 E56.99688
G1 X63.253 Y165.61 E57.0342
G1 X62.515 Y165.491 E57.07149
G1 X61.793 Y165.293 E57.10884
G1 X61.097 Y165.02 E57.14614
G1 X60.434 Y164.673 E57.18348
G1 X59.811 Y164.258 E57.22082
G1 X59.237 Y163.779 E57.25812
G1 X58.716 Y163.242 E57.29545
G1 X58.257 Y162.652 E57.33274
G1 X57.862 Y162.016 E57.37009
G1 X57.538 Y161.342 E57.4074
G1 X57.288 Y160.637 E57.44472
G1 X57.114 Y159.909 E57.48206
G1 X57.019 Y159.167 E57.51939
G1 X57 Y158.65 E57.5452
G1 X57 Y41.35 E63.39732
G1 X57.04 Y40.603 E63.43464
G1 X57.159 Y39.865 E63.47193
G1 X57.357 Y39.143 E63.50928
G1 X57.63 Y38.447 E63.54658
G1 X57.977 Y37.784 E63.58392
G1 X58.392 Y37.161 E63.62126
G0 F3600 X58.789 Y37.3
G1 F1800 X59.265 Y36.752 E63.65748
G1 X59.799 Y36.259 E63.69374
G1 X60.384 Y35.829 E63.72996
G1 X61.013 Y35.465 E63.76621
G1 X61.678 Y35.172 E63.80247
G1 X62.371 Y34.954 E63.83871
G1 X63.083 Y34.814 E63.87491
G1 X64 Y34.75 E63.92078
G1 X136 Y34.75 E67.51287
G1 X136.725 Y34.79 E67.5491
G1 X137.442 Y34.909 E67.58536
G1 X138.141 Y35.107 E67.6216
G1 X138.814 Y35.38 E67.65783
G1 X139.453 Y35.725 E67.69406
G1 X140.05 Y36.139 E67.73031
G1 X140.598 Y36.615 E67.76652
G1 X141.091 Y37.149 E67.80278
G1 X141.521 Y37.734 E67.839
G1 X141.885 Y38.363 E67.87526
G1 X142.178 Y39.028 E67.91152
G1 X142.396 Y39.721 E67.94776
G1 X142.536 Y40.433 E67.98396
G1 X142.6 Y41.35 E68.02982
G1 X142.6 Y158.65 E73.88194
G1 X142.56 Y159.375 E73.91817
G1 X142.441 Y160.092 E73.95443
G1 X142.243 Y160.791 E73.99067
G1 X141.97 Y161.464 E74.02691
G1 X141.625 Y162.103 E74.06314
G1 X141.211 Y162.7 E74.09938
G1 X140.735 Y163.248 E74.1356
G1 X140.201 Y163.741 E74.17186
G1 X139.616 Y164.171 E74.20808
G1 X138.987 Y164.535 E74.24433
G1 X138.322 Y164.828 E74.28059
G1 X137.629 Y165.046 E74.31683
G1 X136.917 Y165.186 E74.35303
G1 X136 Y165.25 E74.3989
G1 X64 Y165.25 E77.99099
G1 X63.275 Y165.21 E78.02722
G1 X62.558 Y165.091 E78.06348
G1 X61.859 Y164.893 E78.09972
G1 X61.186 Y164.62 E78.13595
G1 X60.547 Y164.275 E78.17218
G1 X59.95 Y163.861 E78.20843
G1 X59.402 Y163.385 E78.24464
G1 X58.909 Y162.851 E78.2809
G1 X58.479 Y162.266 E78.31712
G1 X58.115 Y161.637 E78.35338
G1 X57.822 Y160.972 E78.38964
G1 X57.604 Y160.279 E78.42588
G1 X57.464 Y159.567 E78.46208
G1 X57.4 Y158.65 E78.50794
G1 X57.4 Y41.35 E84.36006
G1 X57.44 Y40.625 E84.39629
G1 X57.559 Y39.908 E84.43255
G1 X57.757 Y39.209 E84.46879
G1 X58.03 Y38.536 E84.50503
G1 X58.375 Y37.897 E84.54126
G1 X58.789 Y37.3 E84.5775
G0 F3600 X58.774 Y38.015
G1 F1800 X59.185 Y37.444 E84.6126
G1 X59.659 Y36.923 E84.64774
G1 X60.189 Y36.459 E84.68289
G1 X60.768 Y36.059 E84.718
G1 X61.389 Y35.727 E84.75313
G1 X62.043 Y35.467 E84.78824
G1 X62.723 Y35.283 E84.82338
G1 X63.419 Y35.177 E84.85851
G1 X64 Y35.15 E84.88753
G1 X136 Y35.15 E88.47962
G1 X136.703 Y35.19 E88.51475
G1 X137.397 Y35.309 E88.54988
G1 X138.072 Y35.507 E88.58497
G1 X138.721 Y35.779 E88.62008
G1 X139.335 Y36.124 E88.65522
G1 X139.906 Y36.535 E88.69032
G1 X140.427 Y37.009 E88.72546
G1 X140.891 Y37.539 E88.7606
G1 X141.291 Y38.118 E88.79571
G1 X141.623 Y38.739 E88.83084
G1 X141.883 Y39.393 E88.86595
G1 X142.067 Y40.073 E88.9011
G1 X142.173 Y40.769 E88.93622
G1 X142.2 Y41.35 E88.96524
G1 X142.2 Y158.65 E94.81736
G1 X142.16 Y159.353 E94.85249
G1 X142.041 Y160.047 E94.88762
G1 X141.843 Y160.722 E94.92272
G1 X141.571 Y161.371 E94.95782
G1 X141.226 Y161.985 E94.99296
G1 X140.815 Y162.556 E95.02806
G1 X140.341 Y163.077 E95.0632
G1 X139.811 Y163.541 E95.09834
G1 X139.232 Y163.941 E95.13345
G1 X138.611 Y164.273 E95.16858
G1 X137.957 Y164.533 E95.2037
G1 X137.277 Y164.717 E95.23884
G1 X136.581 Y164.823 E95.27397
G1 X136 Y164.85 E95.30298
G1 X64 Y164.85 E98.89508
G1 X63.297 Y164.81 E98.93021
G1 X62.603 Y164.691 E98.96534
G1 X61.928 Y164.493 E99.00043
G1 X61.279 Y164.221 E99.03554
G1 X60.665 Y163.876 E99.07068
G1 X60.094 Y163.465 E99.10578
G1 X59.573 Y162.991 E99.14092
G1 X59.109 Y162.461 E99.17606
G1 X58.709 Y161.882 E99.21117
G1 X58.377 Y161.261 E99.2463
G1 X58.117 Y160.607 E99.28141
G1 X57.933 Y159.927 E99.31656
G1 X57.827 Y159.231 E99.35168
G1 X57.8 Y158.65 E99.3807
G1 X57.8 Y41.35 E105.23282
G1 X57.84 Y40.647 E105.26795
G1 X57.959 Y39.953 E105.30308
G1 X58.157 Y39.278 E105.33817
G1 X58.429 Y38.629 E105.37328
G1 X58.774 Y38.015 E105.40842
G0 F3600 X59.172 Y38.136
G1 F1800 X59.582 Y37.592 E105.4424
G1 X60.053 Y37.101 E105.47635
G1 X60.578 Y36.667 E105.51033
G1 X61.15 Y36.298 E105.54429
G1 X61.762 Y35.999 E105.57827
G1 X62.404 Y35.774 E105.61221
G1 X63.069 Y35.625 E105.64621
G1 X64 Y35.55 E105.69281
G1 X136 Y35.55 E109.2849
G1 X136.68 Y35.59 E109.31889
G1 X137.35 Y35.709 E109.35284
G1 X138.002 Y35.906 E109.38682
G1 X138.626 Y36.178 E109.42078
G1 X139.214 Y36.522 E109.45477
G1 X139.758 Y36.932 E109.48875
G1 X140.249 Y37.403 E109.5227
G1 X140.683 Y37.928 E109.55668
G1 X141.052 Y38.5 E109.59064
G1 X141.351 Y39.112 E109.62462
G1 X141.576 Y39.754 E109.65856
G1 X141.725 Y40.419 E109.69256
G1 X141.8 Y41.35 E109.73916
G1 X141.8 Y158.65 E115.59128
G1 X141.76 Y159.33 E115.62526
G1 X141.641 Y160 E115.65921
G1 X141.444 Y160.652 E115.69319
G1 X141.172 Y161.276 E115.72715
G1 X140.828 Y161.864 E115.76114
G1 X140.418 Y162.408 E115.79513
G1 X139.947 Y162.899 E115.82907
G1 X139.422 Y163.333 E115.86305
G1 X138.85 Y163.702 E115.89701
G1 X138.238 Y164.001 E115.931
G1 X137.596 Y164.226 E115.96494
G1 X136.931 Y164.375 E115.99894
G1 X136 Y164.45 E116.04553
G1 X64 Y164.45 E119.63763
G1 X63.32 Y164.41 E119.67161
G1 X62.65 Y164.291 E119.70556
G1 X61.998 Y164.094 E119.73954
G1 X61.374 Y163.822 E119.7735
G1 X60.786 Y163.478 E119.80749
G1 X60.242 Y163.068 E119.84148
G1 X59.751 Y162.597 E119.87542
G1 X59.317 Y162.072 E119.9094
G1 X58.948 Y161.5 E119.94336
G1 X58.649 Y160.888 E119.97735
G1 X58.424 Y160.246 E120.01128
G1 X58.275 Y159.581 E120.04528
G1 X58.2 Y158.65 E120.09188
G1 X58.2 Y41.35 E125.944
G1 X58.24 Y40.67 E125.97799
G1 X58.359 Y40 E126.01194
G1 X58.556 Y39.348 E126.04592
G1 X58.828 Y38.724 E126.07988
G1 X59.172 Y38.136 E126.11387
G0 F3600 X59.57 Y38.262
G1 F1800 X59.978 Y37.747 E126.14664
G1 X60.445 Y37.285 E126.17942
G1 X60.965 Y36.884 E126.21218
G1 X61.529 Y36.548 E126.24493
G1 X62.131 Y36.284 E126.27773
G1 X62.76 Y36.094 E126.31051
G1 X63.407 Y35.983 E126.34326
G1 X64 Y35.95 E126.37289
G1 X136 Y35.95 E129.96498
G1 X136.656 Y35.99 E129.99777
G1 X137.302 Y36.109 E130.03054
G1 X137.929 Y36.306 E130.06333
G1 X138.527 Y36.578 E130.09611
G1 X139.088 Y36.92 E130.12889
G1 X139.603 Y37.328 E130.16167
G1 X140.065 Y37.795 E130.19444
G1 X140.466 Y38.315 E130.2272
G1 X140.802 Y38.879 E130.25995
G1 X141.066 Y39.481 E130.29275
G1 X141.256 Y40.11 E130.32553
G1 X141.367 Y40.757 E130.35828
G1 X141.4 Y41.35 E130.38791
G1 X141.4 Y158.65 E136.24003
G1 X141.36 Y159.306 E136.27282
G1 X141.241 Y159.952 E136.30559
G1 X141.044 Y160.579 E136.33838
G1 X140.772 Y161.177 E136.37116
G1 X140.43 Y161.738 E136.40394
G1 X140.022 Y162.253 E136.43672
G1 X139.555 Y162.715 E136.46949
G1 X139.035 Y163.116 E136.50225
G1 X138.471 Y163.452 E136.535
G1 X137.869 Y163.716 E136.5678
G1 X137.24 Y163.906 E136.60058
G1 X136.593 Y164.017 E136.63333
G1 X136 Y164.05 E136.66296
G1 X64 Y164.05 E140.25505
G1 X63.344 Y164.01 E140.28784
G1 X62.698 Y163.891 E140.32062
G1 X62.071 Y163.694 E140.3534
G1 X61.473 Y163.422 E140.38618
G1 X60.912 Y163.08 E140.41896
G1 X60.397 Y162.672 E140.45174
G1 X59.935 Y162.205 E140.48451
G1 X59.534 Y161.685 E140.51727
G1 X59.198 Y161.121 E140.55003
G1 X58.934 Y160.519 E140.58282
G1 X58.744 Y159.89 E140.6156
G1 X58.633 Y159.243 E140.64835
G1 X58.6 Y158.65 E140.67798
G1 X58.6 Y41.35 E146.5301
G1 X58.64 Y40.694 E146.56289
G1 X58.759 Y40.048 E146.59566
G1 X58.956 Y39.421 E146.62845
G1 X59.228 Y38.823 E146.66123
G1 X59.57 Y38.262 E146.69401
G0 F3600 X59.967 Y38.394
G1 F1800 X60.373 Y37.909 E146.72556
G1 X60.836 Y37.479 E146.75709
G1 X61.35 Y37.11 E146.78865
G1 X61.906 Y36.81 E146.82017
G1 X62.495 Y36.582 E146.85168
G1 X63.109 Y36.43 E146.88324
G1 X64 Y36.35 E146.92787
G1 X136 Y36.35 E150.51997
G1 X136.631 Y36.39 E150.55151
G1 X137.252 Y36.509 E150.58306
G1 X137.852 Y36.706 E150.61456
G1 X138.424 Y36.977 E150.64614
G1 X138.956 Y37.317 E150.67764
G1 X139.441 Y37.723 E150.7092
G1 X139.871 Y38.186 E150.74072
G1 X140.24 Y38.7 E150.77229
G1 X140.54 Y39.256 E150.80381
G1 X140.768 Y39.845 E150.83532
G1 X140.92 Y40.459 E150.86687
G1 X141 Y41.35 E150.91151
G1 X141 Y158.65 E156.76363
G1 X140.96 Y159.281 E156.79517
G1 X140.841 Y159.902 E156.82672
G1 X140.644 Y160.502 E156.85822
G1 X140.373 Y161.074 E156.8898
G1 X140.033 Y161.606 E156.9213
G1 X139.627 Y162.091 E156.95285
G1 X139.164 Y162.521 E156.98438
G1 X138.65 Y162.89 E157.01595
G1 X138.094 Y163.19 E157.04747
G1 X137.505 Y163.418 E157.07898
G1 X136.891 Y163.57 E157.11053
G1 X136 Y163.65 E157.15516
G1 X64 Y163.65 E160.74726
G1 X63.369 Y163.61 E160.7788
G1 X62.748 Y163.491 E160.81035
G1 X62.148 Y163.294 E160.84185
G1 X61.576 Y163.023 E160.87343
G1 X61.044 Y162.683 E160.90493
G1 X60.559 Y162.277 E160.93649
G1 X60.129 Y161.814 E160.96801
G1 X59.76 Y161.3 E160.99958
G1 X59.46 Y160.744 E161.0311
G1 X59.232 Y160.155 E161.06261
G1 X59.08 Y159.541 E161.09417
G1 X59 Y158.65 E161.1388
G1 X59 Y41.35 E166.99092
G1 X59.04 Y40.719 E167.02246
G1 X59.159 Y40.098 E167.05401
G1 X59.356 Y39.498 E167.08551
G1 X59.627 Y38.926 E167.11709
G1 X59.967 Y38.394 E167.14859
G0 F3600 X60.365 Y38.531
G1 F1800 X60.767 Y38.078 E167.17881
G1 X61.225 Y37.681 E167.20905
G1 X61.732 Y37.348 E167.23931
G1 X62.278 Y37.084 E167.26956
G1 X62.854 Y36.895 E167.29981
G1 X63.45 Y36.783 E167.33006
G1 X64 Y36.75 E167.35755
G1 X136 Y36.75 E170.94965
G1 X136.605 Y36.79 E170.9799
G1 X137.199 Y36.909 E171.01012
G1 X137.773 Y37.105 E171.04038
G1 X138.316 Y37.376 E171.07066
G1 X138.819 Y37.715 E171.10092
G1 X139.272 Y38.117 E171.13114
G1 X139.669 Y38.575 E171.16137
G1 X140.002 Y39.082 E171.19164
G1 X140.266 Y39.628 E171.22189
G1 X140.455 Y40.204 E171.25214
G1 X140.567 Y40.8 E171.28239
G1 X140.6 Y41.35 E171.30988
G1 X140.6 Y158.65 E177.162
G1 X140.56 Y159.255 E177.19225
G1 X140.441 Y159.849 E177.22248
G1 X140.245 Y160.423 E177.25274
G1 X139.974 Y160.966 E177.28301
G1 X139.635 Y161.469 E177.31328
G1 X139.233 Y161.922 E177.34349
G1 X138.775 Y162.319 E177.37373
G1 X138.268 Y162.652 E177.40399
G1 X137.722 Y162.916 E177.43425
G1 X137.146 Y163.105 E177.46449
